packages/kaspersky-hexa-ui-icons/src/iconsSVGs/64x42/FlagIs.svg

<svg xmlns="http://www.w3.org/2000/svg" width="64" height="42" fill="none" viewBox="0 0 64 42"><g clip-path="url(#a)"><rect width="64" height="42" fill="#fff" rx="5"/><path fill="#0e4cb5" d="M0 0h64v42H0z"/><path fill="#fff" fill-rule="evenodd" d="M0 25.2h16.8V42h8.4V25.2h39.6v-8.4H25.2V0h-8.4v16.8H0z" clip-rule="evenodd"/><path fill="#eb363a" fill-rule="evenodd" d="M0 22.4h19.6V42h2.8V22.4h43.4v-2.8H22.4V0h-2.8v19.6H0z" clip-rule="evenodd"/></g><defs><clipPath id="a"><rect width="64" height="42" fill="#fff" rx="5"/></clipPath></defs></svg>

<svg width="64" height="42" viewBox="0 0 64 42" fill="none" xmlns="http://www.w3.org/2000/svg">
<g clip-path="url(#clip0_37941_2267)">
<rect width="64" height="42" rx="5" fill="white"/>
<rect width="64" height="42" fill="#0E4CB5"/>
<path fill-rule="evenodd" clip-rule="evenodd" d="M0 25.2H16.8V42H25.2V25.2H64.8V16.8H25.2V0H16.8V16.8H0V25.2Z" fill="white"/>
<path fill-rule="evenodd" clip-rule="evenodd" d="M0 22.4H19.6V42H22.4V22.4H65.8V19.6H22.4V0H19.6V19.6H0V22.4Z" fill="#EB363A"/>
</g>
<defs>
<clipPath id="clip0_37941_2267">
<rect width="64" height="42" rx="5" fill="white"/>
</clipPath>
</defs>
</svg>
